!!!!SEGMENT: pl-wn--sd-xvi-qu-273--004_gomolka-mikolaj--wzywam-cie-boze-swiadku-mojej-niewinnosci.krn
!!!cenid: 15xx:209
!!!COM: Gomółka, Mikołaj
!!!COM-rismid: pe30013343
!!!CDT: ~1535->1591/04/30
!!!CNT: Polish
!!!GTL: Melodiae na psalterz polski
!!!OTL: IV. Wzywam Cię, Boże, świadku mojej niewinności,
!!!PDT: 1580
!!!AGN: Sacred
!!!SMS-siglum: PL-Wn
!!!SMS-shelfmark: SD XVI.Qu.273
!!!SMS-shelfwork: 004 G
!!!NIFC-rismid:
!!!ONB-nifc: Melodiae na psalterz polski
**kern	**text	**kern	**text	**kern	**text	**kern	**text
*part4	*part4	*part3	*part3	*part2	*part2	*part1	*part1
*staff4	*staff4	*staff3	*staff3	*staff2	*staff2	*staff1	*staff1
*clefF4	*	*clefC3	*	*clefC2	*	*clefC1	*
*k[b-]	*	*k[b-]	*	*k[b-]	*	*k[b-]	*
*g:	*	*g:	*	*g:	*	*g:	*
*M4/2	*	*M4/2	*	*M4/2	*	*M4/2	*
*met(C|)	*	*met(C|)	*	*met(C|)	*	*met(C|)	*
*xywh-4v:913,5340,5154,1316	*	*xywh-4v:921,4096,5105,1276	*	*xywh-4v:913,2900,5122,1276	*	*xywh-4v:897,1260,5089,1648	*
=-	=-	=-	=-	=-	=-	=-	=-
1G	Wӡy-	1B-	Wӡy-	1d	Wӡy-	1g/	Wzy-
2E-X	-wam	2B-	-wam	2e-X/	-wam	2g	-wam
2C	ćię,	2c/	ćię,	2.g	ćię,	2ee	ćię,
=3-	=3-	=3-	=3-	=3-	=3-	=3-	=3-
1G	Bo-	2d	.	.	.	1dd	Bo-
.	.	.	.	4a	.	.	.
.	.	2g	Bo-	2b-	Bo-	.	.
!	!LO:"z z."	!	!LO:"z z."	!	!LO:"z z."	!	!LO:"z z."
2A	-ӡe,	2e	-ӡe,	2a	-ӡe	2cc#X	-ӡe
2D	świád-	4f	świád-	2a	świád-	2dd	świád-
.	.	4e	.	.	.	.	.
=4-	=4-	=4-	=4-	=4-	=4-	=4-	=4-
1G	-ťu	4d\	.	2.g	-ťu	1b-	-ťu
.	.	4c/	.	.	.	.	.
.	.	2d	-ťu	.	.	.	.
.	.	.	.	4f	.	.	.
2A	mo-	2c#X/	mo-	2e/	mo-	2a	mo-
2F	-iéj	2A	-iéj	2f	-iéj	2cc	-iéj
=5-	=5-	=5-	=5-	=5-	=5-	=5-	=5-
2G	nie-	2B-	nie-	4d	nie-	2b-	nie-
.	.	.	.	4e	.	.	.
2A	-win-	2c/	-win-	4f	-win-	1a	-win-
.	.	.	.	4e	.	.	.
1B-	-no(ś-	1d	-noś-	4d	.	.	.
.	.	.	.	4c	.	.	.
.	.	.	.	2d	-noś-	2g	-no(ś-
=6-	=6-	=6-	=6-	=6-	=6-	=6-	=6-
2A	-ci)	2c/	-ci,	2e/	-ci	2a	-ci)
2D/	Któ-	2d	Któ-	2f	Któ-	2a	Któ-
2.B-	-ryś	2.d	-ryś	2g	-ryś	2b-	-ryś
.	.	.	.	1f	mię	2f	mię
4A	mię	4c/	mię	.	.	.	.
=7-	=7-	=7-	=7-	=7-	=7-	=7-	=7-
4G	zwyťł	4B-	zwyťł	.	.	2.g/	zwykł
4F	.	4A	.	.	.	.	.
2G	.	4B-	.	2e/	zwyťł	.	.
.	.	4c	.	.	.	4a	.
1D	wy-	1d	wy-	2f	wy-	2.b-	wy-
.	.	.	.	2f	.	.	.
.	.	.	.	.	.	4a	.
!!LO:PB:g=original
=8-	=8-	=8-	=8-	=8-	=8-	=8-	=8-
*xywh-5r:726,5333,4934,1325	*	*xywh-5r:702,4008,5038,1357	*	*xywh-5r:678,2690,5054,1333	*	*xywh-5r:686,1189,5014,1541	*
2E-X	-wo-	2B-	-wo-	2e-X/	-wo-	2g/	-wo-
!	!LO:"z z'"	!	!LO:"z z'"	!	!LO:"z z'"	!	!LO:"z z'"
2C	-dӡić	2c/	-dӡić	2e-/	-dӡić	2g/	-dӡić
2D/	zawӡ-	2A	zawӡ-	2d/	zawӡ-	2f	zawӡ-
1E-X	-dy	1G	-dy	2.B-	-dy	1e-X	-dy
=9-	=9-	=9-	=9-	=9-	=9-	=9-	=9-
.	.	.	.	.	.	.	.
.	.	.	.	4c	.	.	.
2BB-	ӡ_mych	4B-	ӡ_mych	2d	ӡ_mych	2f	ӡ_mych
.	.	4A	.	.	.	.	.
1C	trud-	4G	.	2.c	trud-	1e-X	trud-
.	.	4F	.	.	.	.	.
.	.	2G	trud-	.	.	.	.
.	.	.	.	4B-	.	.	.
=10-	=10-	=10-	=10-	=10-	=10-	=10-	=10-
1D	-noʃ-	1F#X	-noʃ-	4A	.	1d	-noʃ-
.	.	.	.	4G	.	.	.
.	.	.	.	2A	-noʃ-	.	.
2GG	-ći:	2G	-ći:	2B-	-ći:	2d	-ći:
1D	Chciej	1A	Chćéj	1d	Chćiéj	1f	Chćiéj
=11-	=11-	=11-	=11-	=11-	=11-	=11-	=11-
.	.	.	.	.	.	.	.
2BB-	się	2B-	ʃye	2d	ʃye	2f	ʃye
1E	te-	1G	te-	2B-	te-	1g	te-
.	.	.	.	2c	.	.	.
=12-	=12-	=12-	=12-	=12-	=12-	=12-	=12-
1D	-raz	1A	-raӡ	1d	-raӡ	1f	-raӡ
1.G	na-	2.B-	ná-	1d	ná-	1b.-	ná-
.	.	4c/	.	.	.	.	.
=13-	=13-	=13-	=13-	=13-	=13-	=13-	=13-
.	.	1.d	-de	2G	.	.	.
2F	-de	.	.	2A	de	2a	-de
2F	mną	.	mną	2a	-mną	2a	mną
2G	trosk-	2d	troʃť-	2b-	troʃť-	1dd	troʃť-
=14-	=14-	=14-	=14-	=14-	=14-	=14-	=14-
1A	-li-	2f	-li-	2a	.	.	.
.	.	2e	.	2.a	-li-	2cc#X	-li-
2AA	-wym	2e	-wym	.	.	2cc#	-wym
.	.	.	.	4g	-wym	.	.
2D	ʃmi-	2d	ʃmi-	2f	ʃmi-	2dd	ʃmi-
!!LO:PB:g=original
=15-	=15-	=15-	=15-	=15-	=15-	=15-	=15-
*xywh-5v:1264,5283,4952,1316	*	*xywh-5v:1247,4023,5000,1324	*	*xywh-5v:1239,2762,5017,1260	*	*xywh-5v:1264,1179,4992,1631	*
1G	-ło-	2d	-ło-	1g	-ło-	1b-	-ło-
.	.	2.d	-wáć	.	.	.	.
2F#X	-wáć	.	.	2d	-wáć	2a	-wáć
.	.	4c/	.	.	.	.	.
2G	I	4B-	I	2g	I	2g	I
.	.	4A	.	.	.	.	.
=16-	=16-	=16-	=16-	=16-	=16-	=16-	=16-
2.E	mo-	2G	mo-	2.g	mo-	2b-	mo-
.	.	2G	-ie	.	.	2cc	-ie
4D/	-ie	.	.	4f	-ie	.	.
2C	ʃmut-	2c/	ʃmut-	4e/	ʃmut-	2ee	ʃmut-
.	.	.	.	4f	.	.	.
2BB-	-né	2d	-né	2g	-né	2dd	-né
=17-	=17-	=17-	=17-	=17-	=17-	=17-	=17-
1C	proś-	1e-X	proś-	1g	proś-	1cc	proś-
2GG	-by	2d	-by	2g	-by	2b-	-by
2G	łáʃ-	2d	łáʃ-	2b-	łáʃ-	2.dd	łáʃ-
=18-	=18-	=18-	=18-	=18-	=18-	=18-	=18-
2F#X	-ťá-	2d	-ťa-	2a	ťá-	.	.
.	.	.	.	.	.	4cc	-ťá-
2G	-wie	2d	-wie	4g	-wie	2b-	-wie
.	.	.	.	4f	.	.	.
1C	prӡyi-	2.c	prӡyi-	4e/	.	1ee	prӡyi-
.	.	.	.	4f	.	.	.
.	.	.	.	1g	prӡyi-	.	.
.	.	4B-	.	.	.	.	.
=19-	=19-	=19-	=19-	=19-	=19-	=19-	=19-
1D	-mo-	4A	.	.	.	2.dd	-mo-
.	.	4G	.	.	.	.	.
.	.	2A	-mo-	2f	mo-	.	.
.	.	.	.	.	.	4cc	.
!!LO:N:vis=00
1GG:/	-wać	1G:/	-wać	1g:	wać	1b-X	-wać
=-	=-	=-	=-	=-	=-	=-	=-
*-	*-	*-	*-	*-	*-	*-	*-
!!!RDF**kern: l = terminal long
!!!system-decoration: s1,s2,s3,s4
!!!ENC:Anna Matuszewska
!!!END:2020-02-04
!!!URL-scan: https://polona.pl/item/melodiae-na-psalterz-polski,Nzk3MTM4ODQ/23 Scan on Polona
!!!IIIF: https://polona.pl/iiif/item/Nzk3MTM4ODQ/manifest.json
